private/icons/dark/wallet-open.svg

<svg viewBox="0 0 32 32" xmlns="http://www.w3.org/2000/svg"><path d="m27.5 7.1a2.11 2.11 0 0 1 1.3.5 1.74 1.74 0 0 1 .5 1.4v2.6h-26.6v-2.6a2.11 2.11 0 0 1 .5-1.3 1.76 1.76 0 0 1 1.3-.6zm-24.8 15.9v-7h26.7v7a2.11 2.11 0 0 1 -.5 1.3 1.66 1.66 0 0 1 -1.3.5h-23a2.11 2.11 0 0 1 -1.3-.5 1.29 1.29 0 0 1 -.6-1.3zm2.9-2.6v1.5h3v-1.5zm4.5 0v1.5h4.4v-1.5z" fill="#2485ce"/></svg>

<svg id="Layer_1" data-name="Layer 1" xmlns="http://www.w3.org/2000/svg" viewBox="0 0 32 32"><defs><style>.cls-1{fill:#2485ce;}</style></defs><path class="cls-1" d="M27.5,7.1a2.11,2.11,0,0,1,1.3.5A1.74,1.74,0,0,1,29.3,9v2.6H2.7V9a2.11,2.11,0,0,1,.5-1.3,1.76,1.76,0,0,1,1.3-.6ZM2.7,23V16H29.4v7a2.11,2.11,0,0,1-.5,1.3,1.66,1.66,0,0,1-1.3.5H4.6a2.11,2.11,0,0,1-1.3-.5A1.29,1.29,0,0,1,2.7,23Zm2.9-2.6v1.5h3V20.4Zm4.5,0v1.5h4.4V20.4Z"/></svg>
